lib/logo_updates/nrk-logo-nrk-p3-x-title-below.svg

<svg width="156" height="104" viewBox="0 0 156 104" fill="none" xmlns="http://www.w3.org/2000/svg">
<path fill-rule="evenodd" clip-rule="evenodd" d="M0 0H104V104H0V0ZM33.5867 46.2212H24V81.0521H33.5867V46.2212ZM45.7418 46.2212H34.9761C34.9761 46.2212 41.0927 56.2484 41.1616 56.3746C41.6302 57.1697 41.6589 57.6577 41.2013 58.4248L34.9761 68.6159H45.7418C45.7418 68.6159 50.9328 60.1383 51.6427 58.9615C52.3471 57.7841 52.3153 57.0523 51.6142 55.8437C50.8978 54.6249 50.8516 54.5496 46.6384 47.6826L45.7418 46.2212ZM75.8911 46.2212C75.8911 46.2212 79.0949 51.3759 79.4569 51.9918C80.1601 53.2043 80.192 53.9379 79.4849 55.1191C78.9914 55.9379 74.7559 62.947 74.7559 62.947C75.5324 64.2141 76.5667 65.8714 77.4748 67.3264L77.4758 67.3281C78.4079 68.8216 79.2067 70.1015 79.4566 70.5267C80.1598 71.739 80.1917 72.4727 79.4849 73.654C79.3512 73.8757 79.0802 74.3306 78.7247 74.9275L78.7215 74.9329L78.7199 74.9356L78.7165 74.9413L78.7147 74.9442C77.757 76.552 76.1946 79.1747 75.0455 81.0521H65.2092L70.5949 72.2125L65.0088 62.8493L70.0181 54.6518H57.8832L52.8499 46.2212H75.8911ZM57.292 64.1072C55.7761 66.5808 53.2398 70.7253 52.7652 71.5337C52.0878 72.7013 52.0572 73.408 52.7379 74.5456C53.213 75.3341 55.7692 79.5118 57.2924 82C58.8157 79.5114 61.3717 75.3337 61.847 74.5456C62.5277 73.4076 62.4969 72.7013 61.8197 71.5337C61.3443 70.7253 58.8079 66.5808 57.292 64.1072ZM24 21.4683V41.0623H30.4307V21.4683H24ZM42.8782 41.0623L39.1799 24.5868C39.0021 23.7147 38.5295 22.9303 37.8417 22.3653C37.155 21.7756 36.2767 21.4566 35.3716 21.4683H31.4243L35.8403 41.0623H42.8782ZM43.8442 21.4683V41.0623H50.275V21.4683H43.8442ZM53.1591 28.3952C53.7572 28.745 54.4388 28.9263 55.1316 28.9196C55.1315 28.9196 55.1313 28.9196 55.1312 28.9196H55.1321C55.1319 28.9196 55.1318 28.9196 55.1316 28.9196C55.8207 28.9277 56.4987 28.7463 57.0917 28.3952C57.6759 28.0512 58.1609 27.5614 58.4993 26.9739C58.8492 26.3757 59.0306 25.6939 59.0241 25.0008C59.0316 24.312 58.8501 23.6343 58.4993 23.0415C58.1573 22.4603 57.6729 21.9759 57.0917 21.634C56.4986 21.2836 55.8209 21.1022 55.1321 21.1096C54.4392 21.1033 53.7575 21.2845 53.1591 21.634C52.5721 21.9729 52.0824 22.4578 51.7377 23.0415C51.3865 23.6341 51.205 24.312 51.2129 25.0008C51.206 25.694 51.3874 26.3758 51.7377 26.9739C52.0788 27.564 52.569 28.0542 53.1591 28.3952ZM60.0177 21.4683V41.0623H66.449V21.4683H60.0177ZM75.0044 32.8521C74.7465 32.4204 74.6085 32.195 74.5904 32.176H74.5894C74.3919 31.9116 74.2769 31.5948 74.2587 31.2653C74.2703 30.9515 74.3656 30.6465 74.5347 30.3818L80 21.4679H72.9344C72.4931 22.186 72.0927 22.8392 71.7333 23.4273C71.3757 24.016 70.9943 24.6462 70.5889 25.3177C70.1835 25.9893 69.783 26.647 69.3874 27.2909C68.9918 27.9349 68.6468 28.4914 68.3524 28.9605C68.058 29.4297 67.8556 29.7563 67.7452 29.9403C67.4836 30.3352 67.3314 30.7924 67.304 31.2653C67.3383 31.7581 67.4998 32.2335 67.7728 32.6452C67.8829 32.8111 68.0809 33.1331 68.3667 33.6111C68.6513 34.0888 68.9915 34.6453 69.3874 35.2807C69.7833 35.916 70.1838 36.5692 70.5889 37.2401C70.9931 37.9116 71.3745 38.5372 71.7333 39.1167C72.0921 39.6962 72.4925 40.3448 72.9344 41.0623H80C79.4839 40.2163 79.0239 39.4574 78.62 38.7855C78.2146 38.1137 77.782 37.4007 77.3223 36.6467C76.8626 35.8927 76.4258 35.1798 76.0118 34.508C75.5981 33.8358 75.2623 33.2839 75.0044 32.8521Z" fill="white"/>
<path d="M156 73L141.5 51.092L154.747 31H148.12L138.497 46.9935L127.939 31H120.657L134.262 51.3838L120 72.999H126.746L137.364 55.7376L148.776 72.999L156 73Z" fill="white"/>
</svg>

<svg xmlns="http://www.w3.org/2000/svg" viewBox="0 0 156 104"><path fill="#fff" fill-rule="evenodd" d="M0 0h104v104H0V0Zm33.587 46.221H24v34.831h9.587v-34.83Zm12.155 0H34.976s6.117 10.027 6.186 10.154c.468.795.497 1.283.04 2.05l-6.226 10.19h10.766s5.19-8.477 5.9-9.653c.705-1.178.673-1.91-.028-3.118-.716-1.22-.762-1.294-4.976-8.161l-.896-1.462Zm30.15 0s3.203 5.155 3.565 5.77c.703 1.213.735 1.947.028 3.128l-4.73 7.828c.777 1.267 1.812 2.924 2.72 4.38v.001c.933 1.494 1.732 2.773 1.982 3.199.703 1.212.735 1.946.028 3.127-.134.222-.405.677-.76 1.273l-.003.006-.002.003-.004.005-.001.003a669.71 669.71 0 0 1-3.67 6.108H65.21l5.386-8.84-5.586-9.363 5.01-8.197H57.882l-5.033-8.43H75.89Zm-18.6 17.886c-1.516 2.474-4.052 6.618-4.527 7.427-.677 1.167-.708 1.874-.027 3.012.475.788 3.031 4.966 4.554 7.454 1.524-2.489 4.08-6.666 4.555-7.454.68-1.138.65-1.845-.027-3.012-.476-.809-3.012-4.953-4.528-7.427ZM24 21.468v19.594h6.43V21.468H24Zm18.878 19.594L39.18 24.587a3.878 3.878 0 0 0-1.338-2.222 3.718 3.718 0 0 0-2.47-.897h-3.948l4.416 19.594h7.038Zm.966-19.594v19.594h6.431V21.468h-6.43Zm9.315 6.927c.598.35 1.28.531 1.973.525a3.76 3.76 0 0 0 1.96-.525 3.92 3.92 0 0 0 1.407-1.421c.35-.598.532-1.28.525-1.973a3.767 3.767 0 0 0-.525-1.96 3.967 3.967 0 0 0-1.407-1.407 3.773 3.773 0 0 0-1.96-.524 3.843 3.843 0 0 0-1.973.524 3.937 3.937 0 0 0-1.421 1.407 3.759 3.759 0 0 0-.525 1.96 3.828 3.828 0 0 0 .525 1.973 3.89 3.89 0 0 0 1.421 1.421Zm6.859-6.927v19.594h6.431V21.468h-6.431Zm14.986 11.384a15.153 15.153 0 0 0-.414-.676 1.676 1.676 0 0 1-.331-.91c.011-.314.107-.62.276-.884L80 21.468h-7.066c-.44.718-.841 1.371-1.2 1.96-.358.588-.74 1.218-1.145 1.89a294.72 294.72 0 0 1-2.237 3.642c-.294.47-.496.796-.607.98a2.68 2.68 0 0 0-.441 1.325c.034.493.196.968.469 1.38.11.166.308.488.594.966.284.478.624 1.034 1.02 1.67.396.635.797 1.288 1.202 1.96.404.67.785 1.296 1.144 1.876.36.58.76 1.228 1.201 1.945H80a412.47 412.47 0 0 1-1.38-2.276 550.863 550.863 0 0 0-2.608-4.278c-.414-.672-.75-1.224-1.008-1.656Z" clip-rule="evenodd"/><path fill="#fff" d="m156 73-14.5-21.908L154.747 31h-6.627l-9.623 15.993L127.939 31h-7.282l13.605 20.384L120 72.999h6.746l10.618-17.261 11.412 17.261L156 73Z"/></svg>
